outputs/icons/image/camera_sharp.svg

<svg width="1200" height="1200" viewBox="0 0 1200 1200" fill="none" xmlns="http://www.w3.org/2000/svg"><g clip-path="url(#clip0_124_530)"><path fill-rule="evenodd" d="M358.5 200L450 100H750L841.5 200H1100V1000H100V200H358.5ZM350 600C350 738 462 850 600 850C738 850 850 738 850 600C850 462 738 350 600 350C462 350 350 462 350 600ZM750 600C750 682.845 682.845 750 600 750C517.155 750 450 682.845 450 600C450 517.155 517.155 450 600 450C682.845 450 750 517.155 750 600Z" fill="#1D1E23"/></g><defs><clipPath id="clip0_124_530"><path width="24" fill="white" d="M0 0H1200V1200H0V0z"/></clipPath></defs></svg>

<svg xmlns="http://www.w3.org/2000/svg" width="1200" height="1200" fill="none"><g fill="#000" clip-path="url(#a)"><path d="M750 600c0 82.845-67.155 150-150 150s-150-67.155-150-150 67.155-150 150-150 150 67.155 150 150"/><path fill-rule="evenodd" d="M358.5 200 450 100h300l91.5 100H1100v800H100V200zM350 600c0 138 112 250 250 250s250-112 250-250-112-250-250-250-250 112-250 250"/></g><defs><clipPath id="a"><path fill="#fff" d="M0 0h1200v1200H0z"/></clipPath></defs></svg>
